public/svg/good.svg

<svg height="40" viewBox="0 0 44 40" width="44" xmlns="http://www.w3.org/2000/svg"><g fill="#0cd300" transform="translate(.823529)"><path d="m20.6764706 40c11.3031108 0 20.5-8.9717611 20.5-20 0-1.9034832-.272349-3.7792968-.8116252-5.5757649-.2656759-.8833822-1.2111816-1.3907878-2.1191508-1.1315919-.9063008.2583822-1.4247233 1.184082-1.1598815 2.0674642.4466858 1.4925131.6739908 3.0541993.6739908 4.6398926 0 9.18986-7.6637268 16.6666667-17.0833333 16.6666667s-17.08333335-7.4768067-17.08333335-16.6666667 7.66372685-16.66666667 17.08333335-16.66666667c3.4233399 0 6.7169698.97656251 9.5247091 2.82348635.7815959.5147298 1.8442993.3125 2.3710632-.4500326.527181-.76334635.3215637-1.79931635-.4608663-2.31363927-3.3741251-2.21964521-7.3279825-3.39314781-11.434906-3.39314781-11.30311074 0-20.50000001 8.97176105-20.50000001 20 0 11.0282389 9.19688927 20 20.50000001 20z"/><path d="m39.2647257 4.49549039-17.5589719 17.41828921-5.6175383-5.5719686c-.6663747-.6606538-1.7459015-.6606538-2.4122762 0-.6659583.6610671-.6659583 1.7319957 0 2.3930627l6.8236764 6.7693261c.3336038.3309466.7692462.4958002 1.2061381.4958002.4368918 0 .8725343-.1648536 1.206138-.4958002l18.7651101-18.61564686c.6659582-.661067.6659582-1.73199554 0-2.39306255-.6663747-.66065385-1.7459015-.66065385-2.4122762 0z"/></g></svg>

<?xml version="1.0" encoding="UTF-8"?>
<svg width="44px" height="40px" viewBox="0 0 44 40" version="1.1" xmlns="http://www.w3.org/2000/svg" xmlns:xlink="http://www.w3.org/1999/xlink">
    <title>good</title>
    <g id="Page-1" stroke="none" stroke-width="1" fill="none" fill-rule="evenodd">
        <g id="plans-desktop" transform="translate(-1143.000000, -863.000000)" fill="#0CD300" fill-rule="nonzero">
            <g id="good" transform="translate(1143.823529, 863.000000)">
                <path d="M20.6764706,40 C31.9795814,40 41.1764706,31.0282389 41.1764706,20 C41.1764706,18.0965168 40.9041216,16.2207032 40.3648454,14.4242351 C40.0991695,13.5408529 39.1536638,13.0334473 38.2456946,13.2926432 C37.3393938,13.5510254 36.8209713,14.4767252 37.0858131,15.3601074 C37.5324989,16.8526205 37.7598039,18.4143067 37.7598039,20 C37.7598039,29.18986 30.0960771,36.6666667 20.6764706,36.6666667 C11.2568641,36.6666667 3.59313725,29.18986 3.59313725,20 C3.59313725,10.81014 11.2568641,3.33333333 20.6764706,3.33333333 C24.0998105,3.33333333 27.3934404,4.30989584 30.2011797,6.15681968 C30.9827756,6.67154948 32.045479,6.46931968 32.5722429,5.70678708 C33.0994239,4.94344073 32.8938066,3.90747073 32.1113766,3.39314781 C28.7372515,1.1735026 24.7833941,0 20.6764706,0 C9.37335986,0 0.176470588,8.97176105 0.176470588,20 C0.176470588,31.0282389 9.37335986,40 20.6764706,40 Z" id="Path"></path>
                <path d="M39.2647257,4.49549039 L21.7057538,21.9137796 L16.0882155,16.341811 C15.4218408,15.6811572 14.342314,15.6811572 13.6759393,16.341811 C13.009981,17.0028781 13.009981,18.0738067 13.6759393,18.7348737 L20.4996157,25.5041998 C20.8332195,25.8351464 21.2688619,26 21.7057538,26 C22.1426456,26 22.5782881,25.8351464 22.9118918,25.5041998 L41.6770019,6.88855294 C42.3429601,6.22748594 42.3429601,5.1565574 41.6770019,4.49549039 C41.0106272,3.83483654 39.9311004,3.83483654 39.2647257,4.49549039 Z" id="Path"></path>
            </g>
        </g>
    </g>
</svg>
